storage/app/icons/phosphoricons/thin/rainbow-thin.svg

<svg xmlns="http://www.w3.org/2000/svg" fill="currentColor" viewBox="0 0 256 256"><path d="M180 168v16a4 4 0 0 1-8 0v-16a44 44 0 0 0-88 0v16a4 4 0 0 1-8 0v-16a52 52 0 0 1 104 0m-52-84a84.09 84.09 0 0 0-84 84v16a4 4 0 0 0 8 0v-16a76 76 0 0 1 152 0v16a4 4 0 0 0 8 0v-16a84.09 84.09 0 0 0-84-84m0-32A116.13 116.13 0 0 0 12 168v16a4 4 0 0 0 8 0v-16a108 108 0 0 1 216 0v16a4 4 0 0 0 8 0v-16A116.13 116.13 0 0 0 128 52"/></svg>

<svg xmlns="http://www.w3.org/2000/svg" viewBox="0 0 256 256" fill="currentColor"><path d="M180,168v16a4,4,0,0,1-8,0V168a44,44,0,0,0-88,0v16a4,4,0,0,1-8,0V168a52,52,0,0,1,104,0ZM128,84a84.09,84.09,0,0,0-84,84v16a4,4,0,0,0,8,0V168a76,76,0,0,1,152,0v16a4,4,0,0,0,8,0V168A84.09,84.09,0,0,0,128,84Zm0-32A116.13,116.13,0,0,0,12,168v16a4,4,0,0,0,8,0V168a108,108,0,0,1,216,0v16a4,4,0,0,0,8,0V168A116.13,116.13,0,0,0,128,52Z"/></svg>
